public/svgs/icons/chart.svg

<svg fill="none" height="82" viewBox="0 0 72 82" width="72" xmlns="http://www.w3.org/2000/svg"><path d="m29.3796 74h-11.24v-31h11.24zm-9.74-1.5h8.24v-28.04h-8.24z" fill="#bad8db"/><path d="m12.24 74h-11.24v-19.52h11.24zm-9.74-1.47h8.24v-16.53h-8.24z" fill="#bad8db"/><g fill="#ed6a5e"><path d="m8.55762 35.2944 11.29178-6.6963.765 1.29-11.29178 6.6963z"/><path d="m58.7901 10.7398c-.2645.0003-.5286-.0197-.79-.06-.6297-.1043-1.2327-.3317-1.7745-.6691-.5419-.33738-1.0119-.77822-1.3834-1.29731-.3714-.51909-.637-1.10627-.7815-1.72801-.1445-.62173-.1651-1.26583-.0606-1.89553.1042-.63535.335-1.2433.6785-1.78782.3436-.54453.7929-1.01454 1.3215-1.38218.7813-.56489 1.7127-.88518 2.6761-.920282.9635-.035103 1.9157.216562 2.736.723102s1.4719 1.24517 1.872 2.12231c.4002.87714.531 1.85332.3759 2.80487-.1048.63517-.3357 1.24292-.6792 1.78737-.3436.54445-.7926 1.01458-1.3208 1.38263-.8318.60945-1.8389.93225-2.87.91995zm0-8.23995c-.7996-.00049-1.5732.28421-2.1817.80293-.6086.51872-1.0122 1.23746-1.1383 2.02707-.0809.43268-.0757.87706.0152 1.30774.091.43068.2659.83922.5148 1.20226.5234.72552 1.313 1.21397 2.1959 1.35831.8828.14433 1.7869-.06722 2.5141-.58831.3597-.25881.6643-.58661.8961-.96432.2318-.3777.3861-.79775.4539-1.23568.0752-.43656.0616-.88378-.0397-1.31501-.1014-.43122-.2885-.83763-.5503-1.19499-.3094-.42808-.7148-.77771-1.1836-1.02084-.4689-.24313-.9883-.37298-1.5164-.37916z"/><path d="m40.9103 21.4398c-1.0333.0069-2.0418-.3156-2.8793-.9208s-1.4603-1.4616-1.778-2.4448-.3138-2.0421.0112-3.0229.9541-1.8325 1.7961-2.4315c.515-.3786 1.1008-.6498 1.7227-.7975.6218-.1478 1.2671-.169 1.8973-.0625.6297.1043 1.2327.3317 1.7745.6691.5419.3374 1.0119.7782 1.3834 1.2973.3714.5191.637 1.1063.7815 1.728.1444.6218.1651 1.2659.0606 1.8956-.185 1.1402-.7693 2.1776-1.6486 2.9268s-1.9962 1.1615-3.1514 1.1632zm0-8.24c-.7164-.006-1.4164.2145-2 .63-.7124.5194-1.1905 1.2995-1.33 2.17-.0752.4365-.0617.8838.0397 1.315s.2885.8376.5503 1.195c.3244.4492.7547.8114 1.2526 1.0547.4978.2432 1.048.36 1.6018.3398.5538-.0201 1.094-.1765 1.5729-.4553s.8817-.6713 1.1726-1.1429c.291-.4716.4612-1.0077.4955-1.5608.0343-.553-.0682-1.106-.2986-1.61-.2304-.5039-.5816-.9433-1.0223-1.2792-.4407-.3358-.9575-.5578-1.5045-.6463-.1794-.0182-.36-.0216-.54-.01z"/><path d="m23.7706 31.9998c-.9996.0032-1.9761-.3007-2.7975-.8706-.8213-.5698-1.4478-1.3782-1.7947-2.3157-.347-.9375-.3977-1.9589-.1452-2.9262.2525-.9672.7959-1.8336 1.5568-2.4819.7609-.6484 1.7025-1.0474 2.6976-1.1432.995-.0957 1.9955.1164 2.8661.6078.8705.4914 1.5692 1.2382 2.0015 2.1396.4322.9013.5773 1.9137.4154 2.9002-.185 1.1402-.7693 2.1776-1.6486 2.9268-.8792.7492-1.9962 1.1615-3.1514 1.1632zm0-8.24c-.8013-.0029-1.5773.2807-2.1879.7996-.6106.519-1.0157 1.2391-1.1421 2.0304-.0709.4373-.055.8843.0469 1.3154.1018.4312.2876.838.5466 1.1974.5233.7258 1.3134 1.214 2.1965 1.3572.8832.1432 1.7871-.0703 2.5129-.5935.7257-.5233 1.2139-1.3134 1.3571-2.1965.0714-.4374.0559-.8845-.0458-1.3159-.1016-.4313-.2873-.8383-.5465-1.1978-.2591-.3595-.5866-.6643-.9637-.897-.3772-.2328-.7965-.3889-1.234-.4593-.1821-.0255-.3661-.0355-.55-.03z"/><path d="m5.88016 42.6397c-1.03582.0135-2.04884-.3044-2.89129-.9072s-1.47023-1.4591-1.79178-2.4438-.320034-2.0465.00432-3.0303c.32436-.9838.95459-1.8382 1.79875-2.4387.52279-.3735 1.11512-.6385 1.74202-.7793.6269-.1409 1.27566-.1547 1.90798-.0407 1.19845.2051 2.27686.851 3.02324 1.8108.7464.9598 1.1067 2.1641 1.0102 3.3761s-.6429 2.3441-1.53174 3.1737c-.88887.8296-2.05591 1.2967-3.2717 1.3094zm0-8.24c-.71813-.0072-1.41948.2172-2 .64-.5397.3906-.95153.9324-1.18343 1.557-.23191.6246-.2735 1.3038-.11951 1.952s.49664 1.2362.98467 1.6897c.48802.4535 1.09952.7522 1.75724.8583.65771.1062 1.33212.015 1.93803-.262.6059-.277 1.1161-.7274 1.46615-1.2943.35004-.5668.52422-1.2247.50052-1.8905s-.24421-1.3096-.63367-1.8502c-.25881-.3597-.58661-.6643-.96432-.8961-.3777-.2317-.79775-.386-1.23568-.4539-.17173-.0304-.34561-.0471-.52-.05z"/><path d="m44.085 13.857 10.9762-6.22785.7403 1.30463-10.9763 6.22782z"/><path d="m26.4219 24.3184 10.9763-6.2278.7402 1.3046-10.9763 6.2278z"/></g><path d="m53.9199 45.4098v-22.35h8.24v23.7c.52.21 1 .43 1.5.68v-25.88h-11.24v24c.5-.1 1-.13 1.5-.15z" fill="#bad8db"/><path d="m36.7803 56.9998v-22.42h8.22v13.42c.49-.28 1-.53 1.5-.77v-14.15h-11.22v28.67c.2972-1.6404.8012-3.2364 1.5-4.75z" fill="#bad8db"/><path d="m54.8505 81.6199c-3.2381 0-6.4035-.9603-9.0958-2.7595-2.6922-1.7992-4.7904-4.3565-6.0291-7.3483s-1.5623-6.2838-.9298-9.4595c.6324-3.1757 2.1925-6.0926 4.4829-8.3816 2.2904-2.2889 5.2082-3.8473 8.3843-4.4778s6.4679-.3049 9.4589.9357c2.9911 1.2405 5.547 3.3403 7.3446 6.0336 1.7975 2.6934 2.756 5.8593 2.754 9.0974-.0053 4.3391-1.732 8.4987-4.8011 11.566-3.0692 3.0672-7.2299 4.7914-11.5689 4.794zm0-31.23c-2.941 0-5.816.8721-8.2614 2.5061-2.4453 1.6339-4.3512 3.9563-5.4767 6.6734s-1.42 5.707-.8462 8.5915 1.99 5.5341 4.0696 7.6137 4.7292 3.4958 7.6137 4.0696 5.8743.2793 8.5915-.8462c2.7171-1.1255 5.0395-3.0314 6.6734-5.4768 1.634-2.4453 2.5061-5.3203 2.5061-8.2613-.0027-3.9429-1.5702-7.7236-4.3583-10.5117s-6.5688-4.3556-10.5117-4.3583z" fill="#ed6a5e"/><path d="m54.8505 81.6199c-3.2381 0-6.4035-.9603-9.0958-2.7595-2.6922-1.7992-4.7904-4.3565-6.0291-7.3483s-1.5623-6.2838-.9298-9.4595c.6324-3.1757 2.1925-6.0926 4.4829-8.3816 2.2904-2.2889 5.2082-3.8473 8.3843-4.4778s6.4679-.3049 9.4589.9357c2.9911 1.2405 5.547 3.3403 7.3446 6.0336 1.7975 2.6934 2.756 5.8593 2.754 9.0974-.0053 4.3391-1.732 8.4987-4.8011 11.566-3.0692 3.0672-7.2299 4.7914-11.5689 4.794zm0-31.23c-2.941 0-5.816.8721-8.2614 2.5061-2.4453 1.6339-4.3512 3.9563-5.4767 6.6734s-1.42 5.707-.8462 8.5915 1.99 5.5341 4.0696 7.6137 4.7292 3.4958 7.6137 4.0696 5.8743.2793 8.5915-.8462c2.7171-1.1255 5.0395-3.0314 6.6734-5.4768 1.634-2.4453 2.5061-5.3203 2.5061-8.2613-.0027-3.9429-1.5702-7.7236-4.3583-10.5117s-6.5688-4.3556-10.5117-4.3583z" fill="#ed6a5e"/><path d="m52.0003 71-4.32-4.3001c-.1405-.1406-.2194-.3312-.2194-.5299 0-.1988.0789-.3894.2194-.53.0689-.0708.1513-.127.2424-.1654.091-.0384.1888-.0583.2876-.0583s.1966.0199.2876.0583.1734.0946.2424.1654l3.12 3.11 7.78-9.24c.1283-.1522.3113-.2479.5095-.2666.1983-.0187.3959.0411.5505.1666.1485.1312.2407.3145.2575.5119.0167.1975-.0433.3938-.1675.5481z" fill="#ed6a5e"/></svg>

<svg width="72" height="82" viewBox="0 0 72 82" fill="none" xmlns="http://www.w3.org/2000/svg">
<path d="M29.3796 74H18.1396V43H29.3796V74ZM19.6396 72.5H27.8796V44.46H19.6396V72.5Z" fill="#BAD8DB"/>
<path d="M12.24 74H1V54.48H12.24V74ZM2.5 72.53H10.74V56H2.5V72.53Z" fill="#BAD8DB"/>
<path d="M8.55762 35.2944L19.8494 28.5981L20.6144 29.8881L9.32262 36.5844L8.55762 35.2944Z" fill="#ED6A5E"/>
<path d="M58.7901 10.7398C58.5256 10.7401 58.2615 10.7201 58.0001 10.6798C57.3704 10.5755 56.7674 10.3481 56.2256 10.0107C55.6837 9.67332 55.2137 9.23248 54.8422 8.71339C54.4708 8.1943 54.2052 7.60712 54.0607 6.98538C53.9162 6.36365 53.8956 5.71955 54.0001 5.08985C54.1043 4.4545 54.3351 3.84655 54.6786 3.30203C55.0222 2.7575 55.4715 2.28749 56.0001 1.91985C56.7814 1.35496 57.7128 1.03467 58.6762 0.999568C59.6397 0.964465 60.5919 1.21613 61.4122 1.72267C62.2325 2.22921 62.8841 2.96784 63.2842 3.84498C63.6844 4.72212 63.8152 5.6983 63.6601 6.64985C63.5553 7.28502 63.3244 7.89277 62.9809 8.43722C62.6373 8.98167 62.1883 9.4518 61.6601 9.81985C60.8283 10.4293 59.8212 10.7521 58.7901 10.7398ZM58.7901 2.49985C57.9905 2.49936 57.2169 2.78406 56.6084 3.30278C55.9998 3.8215 55.5962 4.54024 55.4701 5.32985C55.3892 5.76253 55.3944 6.20691 55.4853 6.63759C55.5763 7.06827 55.7512 7.47681 56.0001 7.83985C56.5235 8.56537 57.3131 9.05382 58.196 9.19816C59.0788 9.34249 59.9829 9.13094 60.7101 8.60985C61.0698 8.35104 61.3744 8.02324 61.6062 7.64553C61.838 7.26783 61.9923 6.84778 62.0601 6.40985C62.1353 5.97329 62.1217 5.52607 62.0204 5.09484C61.919 4.66362 61.7319 4.25721 61.4701 3.89985C61.1607 3.47177 60.7553 3.12214 60.2865 2.87901C59.8176 2.63588 59.2982 2.50603 58.7701 2.49985H58.7901Z" fill="#ED6A5E"/>
<path d="M40.9103 21.4398C39.877 21.4467 38.8685 21.1242 38.031 20.519C37.1935 19.9138 36.5707 19.0574 36.253 18.0742C35.9353 17.091 35.9392 16.0321 36.2642 15.0513C36.5892 14.0705 37.2183 13.2188 38.0603 12.6198C38.5753 12.2412 39.1611 11.97 39.783 11.8223C40.4048 11.6745 41.0501 11.6533 41.6803 11.7598C42.31 11.8641 42.913 12.0915 43.4548 12.4289C43.9967 12.7663 44.4667 13.2071 44.8382 13.7262C45.2096 14.2453 45.4752 14.8325 45.6197 15.4542C45.7641 16.076 45.7848 16.7201 45.6803 17.3498C45.4953 18.49 44.911 19.5274 44.0317 20.2766C43.1524 21.0258 42.0355 21.4381 40.8803 21.4398H40.9103ZM40.9103 13.1998C40.1939 13.1938 39.4939 13.4143 38.9103 13.8298C38.1979 14.3492 37.7198 15.1293 37.5803 15.9998C37.5051 16.4363 37.5186 16.8836 37.62 17.3148C37.7214 17.746 37.9085 18.1524 38.1703 18.5098C38.4947 18.959 38.925 19.3212 39.4229 19.5645C39.9207 19.8077 40.4709 19.9245 41.0247 19.9043C41.5785 19.8842 42.1187 19.7278 42.5976 19.449C43.0765 19.1702 43.4793 18.7777 43.7702 18.3061C44.0612 17.8345 44.2314 17.2984 44.2657 16.7453C44.3 16.1923 44.1975 15.6393 43.9671 15.1353C43.7367 14.6314 43.3855 14.192 42.9448 13.8561C42.5041 13.5203 41.9873 13.2983 41.4403 13.2098C41.2609 13.1916 41.0803 13.1882 40.9003 13.1998H40.9103Z" fill="#ED6A5E"/>
<path d="M23.7706 31.9998C22.771 32.003 21.7945 31.6991 20.9731 31.1292C20.1518 30.5594 19.5253 29.751 19.1784 28.8135C18.8314 27.876 18.7807 26.8546 19.0332 25.8873C19.2857 24.9201 19.8291 24.0537 20.59 23.4054C21.3509 22.757 22.2925 22.358 23.2876 22.2622C24.2826 22.1665 25.2831 22.3786 26.1537 22.87C27.0242 23.3614 27.7229 24.1082 28.1552 25.0096C28.5874 25.9109 28.7325 26.9233 28.5706 27.9098C28.3856 29.05 27.8013 30.0874 26.922 30.8366C26.0428 31.5858 24.9258 31.9981 23.7706 31.9998ZM23.7706 23.7598C22.9693 23.7569 22.1933 24.0405 21.5827 24.5594C20.9721 25.0784 20.567 25.7985 20.4406 26.5898C20.3697 27.0271 20.3856 27.4741 20.4875 27.9052C20.5893 28.3364 20.7751 28.7432 21.0341 29.1026C21.5574 29.8284 22.3475 30.3166 23.2306 30.4598C24.1138 30.603 25.0177 30.3895 25.7435 29.8663C26.4692 29.343 26.9574 28.5529 27.1006 27.6698C27.172 27.2324 27.1565 26.7853 27.0548 26.3539C26.9532 25.9226 26.7675 25.5156 26.5083 25.1561C26.2492 24.7966 25.9217 24.4918 25.5446 24.2591C25.1674 24.0263 24.7481 23.8702 24.3106 23.7998C24.1285 23.7743 23.9445 23.7643 23.7606 23.7698L23.7706 23.7598Z" fill="#ED6A5E"/>
<path d="M5.88016 42.6397C4.84434 42.6532 3.83132 42.3353 2.98887 41.7325C2.14642 41.1297 1.51864 40.2734 1.19709 39.2887C0.87554 38.304 0.877056 37.2422 1.20141 36.2584C1.52577 35.2746 2.156 34.4202 3.00016 33.8197C3.52295 33.4462 4.11528 33.1812 4.74218 33.0404C5.36908 32.8995 6.01784 32.8857 6.65016 32.9997C7.84861 33.2048 8.92702 33.8507 9.6734 34.8105C10.4198 35.7703 10.7801 36.9746 10.6836 38.1866C10.5871 39.3986 10.0407 40.5307 9.15186 41.3603C8.26299 42.1899 7.09595 42.657 5.88016 42.6697V42.6397ZM5.88016 34.3997C5.16203 34.3925 4.46068 34.6169 3.88016 35.0397C3.34046 35.4303 2.92863 35.9721 2.69673 36.5967C2.46482 37.2213 2.42323 37.9005 2.57722 38.5487C2.73121 39.1969 3.07386 39.7849 3.56189 40.2384C4.04991 40.6919 4.66141 40.9906 5.31913 41.0967C5.97684 41.2029 6.65125 41.1117 7.25716 40.8347C7.86306 40.5577 8.37326 40.1073 8.72331 39.5404C9.07335 38.9736 9.24753 38.3157 9.22383 37.6499C9.20013 36.9841 8.97962 36.3403 8.59016 35.7997C8.33135 35.44 8.00355 35.1354 7.62584 34.9036C7.24814 34.6719 6.82809 34.5176 6.39016 34.4497C6.21843 34.4193 6.04455 34.4026 5.87016 34.3997H5.88016Z" fill="#ED6A5E"/>
<path d="M44.085 13.857L55.0612 7.62915L55.8015 8.93378L44.8252 15.1616L44.085 13.857Z" fill="#ED6A5E"/>
<path d="M26.4219 24.3184L37.3982 18.0906L38.1384 19.3952L27.1621 25.623L26.4219 24.3184Z" fill="#ED6A5E"/>
<path d="M53.9199 45.4098V23.0598H62.1599V46.7598C62.6799 46.9698 63.1599 47.1898 63.6599 47.4398V21.5598H52.4199V45.5598C52.9199 45.4598 53.4199 45.4298 53.9199 45.4098Z" fill="#BAD8DB"/>
<path d="M36.7803 56.9998V34.5798H45.0003V47.9998C45.4903 47.7198 46.0003 47.4698 46.5003 47.2298V33.0798H35.2803V61.7498C35.5775 60.1094 36.0815 58.5134 36.7803 56.9998Z" fill="#BAD8DB"/>
<path d="M54.8505 81.6199C51.6124 81.6199 48.447 80.6596 45.7547 78.8604C43.0625 77.0612 40.9643 74.5039 39.7256 71.5121C38.4869 68.5203 38.1633 65.2283 38.7958 62.0526C39.4282 58.8769 40.9883 55.96 43.2787 53.671C45.5691 51.3821 48.4869 49.8237 51.663 49.1932C54.8391 48.5627 58.1309 48.8883 61.1219 50.1289C64.113 51.3694 66.6689 53.4692 68.4665 56.1625C70.264 58.8559 71.2225 62.0218 71.2205 65.2599C71.2152 69.599 69.4885 73.7586 66.4194 76.8259C63.3502 79.8931 59.1895 81.6173 54.8505 81.6199ZM54.8505 50.3899C51.9095 50.3899 49.0345 51.262 46.5891 52.896C44.1438 54.5299 42.2379 56.8523 41.1124 59.5694C39.9869 62.2865 39.6924 65.2764 40.2662 68.1609C40.84 71.0454 42.2562 73.695 44.3358 75.7746C46.4154 77.8542 49.065 79.2704 51.9495 79.8442C54.834 80.418 57.8238 80.1235 60.541 78.998C63.2581 77.8725 65.5805 75.9666 67.2144 73.5212C68.8484 71.0759 69.7205 68.2009 69.7205 65.2599C69.7178 61.317 68.1503 57.5363 65.3622 54.7482C62.5741 51.9601 58.7934 50.3926 54.8505 50.3899Z" fill="#ED6A5E"/>
<path d="M54.8505 81.6199C51.6124 81.6199 48.447 80.6596 45.7547 78.8604C43.0625 77.0612 40.9643 74.5039 39.7256 71.5121C38.4869 68.5203 38.1633 65.2283 38.7958 62.0526C39.4282 58.8769 40.9883 55.96 43.2787 53.671C45.5691 51.3821 48.4869 49.8237 51.663 49.1932C54.8391 48.5627 58.1309 48.8883 61.1219 50.1289C64.113 51.3694 66.6689 53.4692 68.4665 56.1625C70.264 58.8559 71.2225 62.0218 71.2205 65.2599C71.2152 69.599 69.4885 73.7586 66.4194 76.8259C63.3502 79.8931 59.1895 81.6173 54.8505 81.6199ZM54.8505 50.3899C51.9095 50.3899 49.0345 51.262 46.5891 52.896C44.1438 54.5299 42.2379 56.8523 41.1124 59.5694C39.9869 62.2865 39.6924 65.2764 40.2662 68.1609C40.84 71.0454 42.2562 73.695 44.3358 75.7746C46.4154 77.8542 49.065 79.2704 51.9495 79.8442C54.834 80.418 57.8238 80.1235 60.541 78.998C63.2581 77.8725 65.5805 75.9666 67.2144 73.5212C68.8484 71.0759 69.7205 68.2009 69.7205 65.2599C69.7178 61.317 68.1503 57.5363 65.3622 54.7482C62.5741 51.9601 58.7934 50.3926 54.8505 50.3899Z" fill="#ED6A5E"/>
<path d="M52.0003 71L47.6803 66.6999C47.5398 66.5593 47.4609 66.3687 47.4609 66.17C47.4609 65.9712 47.5398 65.7806 47.6803 65.64C47.7492 65.5692 47.8316 65.513 47.9227 65.4746C48.0137 65.4362 48.1115 65.4163 48.2103 65.4163C48.3091 65.4163 48.4069 65.4362 48.4979 65.4746C48.5889 65.513 48.6713 65.5692 48.7403 65.64L51.8603 68.75L59.6403 59.51C59.7686 59.3578 59.9516 59.2621 60.1498 59.2434C60.3481 59.2247 60.5457 59.2845 60.7003 59.41C60.8488 59.5412 60.941 59.7245 60.9578 59.9219C60.9745 60.1194 60.9145 60.3157 60.7903 60.47L52.0003 71Z" fill="#ED6A5E"/>
</svg>
